task1.1/build/res/icons/tweeter-icon-grey.svg

<svg width="32" height="26" fill="none" xmlns="http://www.w3.org/2000/svg"><path d="M32 3.078c-1.19.522-2.458.868-3.78 1.036A6.523 6.523 0 0031.106.488a13.11 13.11 0 01-4.16 1.588A6.574 6.574 0 0022.154 0c-3.632 0-6.556 2.948-6.556 6.562 0 .52.044 1.02.152 1.496-5.454-.266-10.28-2.88-13.522-6.862a6.605 6.605 0 00-.898 3.316 6.57 6.57 0 002.914 5.452 6.479 6.479 0 01-2.964-.808v.072c0 3.188 2.274 5.836 5.256 6.446a6.548 6.548 0 01-1.72.216 5.8 5.8 0 01-1.242-.112c.85 2.598 3.262 4.508 6.13 4.57a13.182 13.182 0 01-8.134 2.798c-.538 0-1.054-.024-1.57-.09A18.469 18.469 0 0010.064 26c12.072 0 18.672-10 18.672-18.668 0-.29-.01-.57-.024-.848A13.087 13.087 0 0032 3.078z" fill="#E5E5E5"/></svg>

<svg width="32" height="26" viewBox="0 0 32 26" fill="none" xmlns="http://www.w3.org/2000/svg">
<path d="M32 3.078C30.81 3.6 29.542 3.946 28.22 4.114C29.58 3.302 30.618 2.026 31.106 0.488C29.838 1.244 28.438 1.778 26.946 2.076C25.742 0.794 24.026 0 22.154 0C18.522 0 15.598 2.948 15.598 6.562C15.598 7.082 15.642 7.582 15.75 8.058C10.296 7.792 5.47 5.178 2.228 1.196C1.662 2.178 1.33 3.302 1.33 4.512C1.33 6.784 2.5 8.798 4.244 9.964C3.19 9.944 2.156 9.638 1.28 9.156C1.28 9.176 1.28 9.202 1.28 9.228C1.28 12.416 3.554 15.064 6.536 15.674C6.002 15.82 5.42 15.89 4.816 15.89C4.396 15.89 3.972 15.866 3.574 15.778C4.424 18.376 6.836 20.286 9.704 20.348C7.472 22.094 4.638 23.146 1.57 23.146C1.032 23.146 0.516 23.122 0 23.056C2.906 24.93 6.35 26 10.064 26C22.136 26 28.736 16 28.736 7.332C28.736 7.042 28.726 6.762 28.712 6.484C30.014 5.56 31.108 4.406 32 3.078Z" fill="#E5E5E5"/>
</svg>
